X: 1
T: Kindness Itself
C: Muriel A. Johnstone
B: To Dance To 1
B: The Whiteaddr Collection
S: Anselm Lingnau <anselm:strathspey.org> strathspey 2009-1-15
R: reel
M: 4/4
L: 1/8
K: Gm
z2 \
| "Gm"DG^FG "Gm/D"BG^FG | "F"AF"F/A"cF "Bb"dF"F/A"cF | "Gm"BAGA "Cm"Bcde | "D7"dgg^f "Gm"g2g2 |
| "Gm"DG^FG "Gm/D"BG^FG | "F"AF"F/A"cF "Bb"dF"F/A"cF | "Gm"BAGA "F"Bc"Eb"de | "D7"dgg^f "Gm"g2 :|
|: ga \
| "Gm"bgdB "Gm/D"GABG | "F"Aff=e "F/C"f2ga | "Gm"bgdB "Gm/Bb"GABG | "D"^Fdd^c "D7/F#"d=e^fa |
| "Gm"bgdB "Gm/D"GABG | "F"Aff=e "F/C"f2ga | "Eb"geBG "D7"^FAdc | "Gm"B2G2 G2 :|
